X:1
T:8 Lieder und Gesänge, Op.57
T:Es träumte mir
T:3. Es träumte mir
T:Johannes Brahms
T:Georg Friedrich Daumer
T:8 Lieder und Gesänge, Op.57
T:OpenScore (CC0)
T:OpenScore (CC0)
T:OpenScore (CC0)
C:Johannes Brahms
Z:Georg Friedrich Daumer
Z:OpenScore (CC0)
%%score 1 { 2 | ( 3 4 5 ) }
L:1/8
Q:1/4=60
M:6/8
K:B
V:1 treble nm="Singstimme\nVoice"
V:2 treble nm="Pianoforte"
V:3 bass 
V:4 bass 
V:5 bass 
V:1
"^Sehr langsam" z6 | z6 | z6 | z2 B e2 d | c2 B A2 B | e3- efd | c2 z z2 z | z2 d c2 c | ^B3 f2 f | %9
w: |||Es träum- te|mir, ich sei dir|teu- * * *|er;|doch zu er-|wa- chen be-|
 e3 d3 | G2 z z2 z | z2 =G c2 c | c3 B2 z | z2 A e2 e | e3 d2 d | (=g3- gf) e | =d3 z2 d | %17
w: durft ich|kaum;|denn schon im|Trau- me|be- reits emp-|fand ich, es|sei _ _ ein|Traum, es|
 (f3- fe) c |[Q:3/8=58] B3[Q:3/8=54] z2[Q:3/8=52] z[Q:3/8=56] |[Q:3/8=50] z6[Q:3/8=48] | z6 | z6 | %22
w: sei _ _ ein|Traum,||||
 z6 | z2 z e2 d | c2 B A2 B | (f2 e) B2 z | z2 z z2 B | =d3- d2 c | B2 z z2 f | (^e3- e2 =d) | %30
w: |ach, im|Traum be- reits emp-|fand _ ich,|es|sei _ ein|Traum, es|sei _ _|
"^ritard."[Q:3/8=46] (=d3-[Q:3/8=44] d2[Q:3/8=42] c) | B3 z2 z | z6 | z6 | z6 |[Q:3/8=40] z6 | %36
w: ein _ _|Traum.|||||
[Q:3/8=34] z6 |[Q:3/8=32] !fermata!z6 |] %38
w: ||
V:2
!p! z2 z ([A^^c]3 | [Bd]3 [B=dg]3 | [Ac]3 [=A=cf]3 | [GB]3) ([=Ge]2 [Fd] | %4
 [Ac]2 [FB]!<(! [CFA]2 [B,FB] | [A,EA]2!<)! [B,EG]!>(! [CEF-]2 [B,DF-])!>)! | [A,CF]2 z ([A^^c]3 | %7
 [Bd]3 [=Ac]3 | [G^B]3 [=Af]3 | [Ge]3 [Fd]3 | [EG]3)!>(! ([Gc]3!>)! | [E=G]3) !tenuto!.[Gc]3 | %12
!<(! z2 z !tenuto!.[FB]2 z | z2 z !tenuto!.[Ae]2!<)! z |!f! z2 z [=cf=a]2 z | z2 z [Be=g]2 z | %16
 z2 z!>(! [B=df]2 z | z2 z!>)!"_dim." [^Ace]2 z | z2 z !tenuto!.[B=d]2 z | z2 z !tenuto!.[B=d]2 z | %20
!pp! z2 z ([A^^c]3 | [Bd]3!<(!!>(! !arpeggio![B=dg]3!<)!!>)! | %22
 [Ac]3!<(!!>(! !arpeggio![=A=cf]3!<)!!>)! | [GB]3) ([=Ge]2 [Fd] | [=Gc]2 [FB]!<(! [CFA]2 [B,FB]) | %25
 ([B,DF]2 [B,E] [B,D=A]2 [B,EG])!<)! |!p!!>(! ([=CDF]2 [B,E] [B,D=A]2!>)! [B,E=G]) | %27
!p! z2 z !tenuto!.[B=d]2 z | z2 z !tenuto!.[B=d]2 z | z2 z [^EB]2 z | %30
"^ritard."!>(! z2 z [=EA]2!>)! z |!pp!"^molto dolce" [^DB]2 z ([d^^f]3 | [eg]3 [^A^^c]3 | %33
 [df]3 [=A^B]3 | [Gce]3"^ritardando" [F=Bd]3) |!>(! [=D^EGB]3 [B,CF]3- | [B,CF]3!>)! [F,A,CF]3- | %37
 [F,A,CF]3 !fermata![F,B,DF]3 |] %38
V:3
 (F,,/A,,/E,/F,/A,/E/) z2 z | (F,,/B,,/F,/B,/D/F/ !arpeggio![F,^E]) z z | %2
 (F,,/C,/=E,/F,/A,/E/ !arpeggio![F,^D]) z z | x3 (A,2 B, | E2 D) F,3 | F,6 | %6
 (F,,/C,/E,/F,/A,/E/) z2 z | (F,,/B,,/D,/F,/B,/D/) z2 z | (F,,/^B,,/D,/F,/^B,/D/) z2 z | %9
 (F,,/G,,/^B,,/F,/G,/^B,/) z2 z | (F,,/C,/E,/F,/G,/C/) z2 z | (F,,/C,/E,/F,/=G,/C/) z2 z | %12
 (F,,/B,,/=D,/F,/B,/=D/) z2 z | (F,,/C,/E,/F,/A,/C/) z2 z | (B,,,/B,,/F,/=A,/=C/F/) z2 z | %15
 (E,,/B,,/E,/=G,/B,/E/) z2 z | (F,,/B,,/=D,/F,/B,/=D/) z2 z | (=G,,/C,/E,/=G,/^A,/^C/) z2 z | %18
 (^G,,/=D,/^E,/B,/=D/^E/) z2 z | (=G,,/=D,/^E,/B,/=D/^E/) z2 z | (5:3:5(F,,=E,F,A,E) z2 z | %21
 (F,,/B,,/F,/B,/D/F/ !arpeggio![F,^E]) z z | (F,,/C,/=E,/F,/A,/E/ !arpeggio![F,^D]) z z | %23
 x3 (A,2 B, | E2 D) F,3 | B,,3 B,,3 | ([=A,,,=A,,]2 [=G,,,=G,,] [F,,,F,,]2 [E,,,E,,]) | %27
 (^E,,/B,,/^E,/^G,/B,/=D/) z2 z | (F,,/B,,/=D,/F,/B,/=D/) z2 z | (=G,,/B,,/^E,/=G,/B,/=D/) z2 z | %30
 (F,,/C,/=E,/F,/^A,/F/) z2 z | (B,,/^D,/=A,/B,/D/=A/) z2 z | %32
 (B,,/E,/G,/B,/E/G/ !arpeggio![B,F]) z z | (B,,,/B,,/D,/F,/B,/D/ !arpeggio![B,F]) z z | %34
 (B,,,/B,,/C,/E,/G,/C/ [F,B,D]) z z | (5:3:5(F,,,F,,B,,=D,F,) z2 z | %36
!ped! (4:3:4F,,,F,,-C,-E,- [F,,C,E,]3!ped-up! |!ped! (B,,,,B,,,F,,) !fermata![B,,D,]3!ped-up! |] %38
V:4
 x6 | x6 | x6 | (F,,/B,,/E,/G,/B,/E/) F,3 | F,3 (E,2 D, | C,2 B,, A,,2 B,,) | x6 | x6 | x6 | x6 | %10
 x6 | x6 | x6 | x6 | x6 | x6 | x6 | x6 | x6 | x6 | x6 | x6 | x6 | (F,,/B,,/E,/G,/B,/E/) (F,3 | %24
 F,3 E,2 D,) | (=A,,2 G,,) (F,,2 E,,) | x6 | x6 | x6 | x6 | x6 | x6 | x6 | x6 | x6 | x6 | %36
 (4:3:3x F,,2 x x3 | x6 |] %38
V:5
 x6 | x6 | x6 | x6 | x6 | x6 | x6 | x6 | x6 | x6 | x6 | x6 | x6 | x6 | x6 | x6 | x6 | x6 | x6 | %19
 x6 | x6 | x6 | x6 | x6 | x6 | x6 | x6 | x6 | x6 | x6 | x6 | x6 | x6 | x6 | x6 | x6 | %36
 (4:3:2x2 C,2 x3 | x6 |] %38

